X:1
T:Gosterwood
T:Gosterwood
T:Courtesy of the Cyber Hymnal (http://www.cyberhymnal.org)
T:Courtesy of the Cyber Hymnal (http://www.cyberhymnal.org)
Z:Courtesy of the Cyber Hymnal (http://www.cyberhymnal.org)
%%score { ( 1 2 ) ( 3 4 ) }
L:1/8
Q:1/4=115
M:1/4
K:G
V:1 treble nm="P1"
V:2 treble 
V:3 bass nm="P2"
V:4 bass 
V:1
"^Editor: John Henry Fowler""^( Revision: 11-20-2007 )" G2 |[M:4/4] G3 E F2 G2 | A2 B2 G2 d2 | %3
 c2"^( 1906 )" B2 (AG) A2 | G6 G2 | G3"^Ralph Vaughan Williams" E F2"^( 1872 - 1958 )" G2 | %6
 A2 B2 G2 d2 | c2 B2 (AG) A2 | G6 (Bc) | d3 c B2 A2 | (B2 G2) E2 B2 | c2 B2 A2 (AF) | D6 (FG) | %13
 G3 E F2 G2 | A4 B2 d2 | c2 B2 (AG) A2 |[M:3/4] G6 |] %17
V:2
 B,2 |[M:4/4] D3 C C2 D2 | E2 D2 G2 F2 | E2 D2 C2 C2 | B,6 B,2 | D3 C C2 D2 | E2 D2 G2 F2 | %7
 E2 D2 C2 C2 | B,6 G2 | G3 F G2 F2 | D4 C2 D2 | E2 D2 E2 C2 | D6 E2 | D3 D D2 D2 | (G2 F2) G2 =F2 | %15
 E2 D2 C2 C2 |[M:3/4] B,6 |] %17
V:3
 G,2 |[M:4/4] G,3 G, C2 B,2 | A,2 F,2 G,2 G,2 | G,2 G,2 G,2 F,2 | G,6 G,2 | G,3 G, C2 B,2 | %6
 A,2 F,2 G,2 G,2 | G,2 G,2 G,2 F,2 | G,6 D2 | D3 A, B,2 D2 | G,4 G,2 ^G,2 | A,2 D2 A,2 A,2 | %12
 F,2 G,2 F,2 A,2 | G,6 G,2 | C6 G,2 | [C,G,]2 [D,G,]2 [E,G,]2 [D,F,]2 |[M:3/4] G,6 |] %17
V:4
 G,,2 |[M:4/4] B,,3 C, A,,2 B,,2 | C,2 D,2 E,2 B,,2 | C,2 D,2 E,2 D,2 | G,,6 G,,2 | %5
 B,,3 C, A,,2 B,,2 | C,2 D,2 E,2 B,,2 | C,2 D,2 E,2 D,2 | G,,6 G,A, | B,3 A, G,2 D,2 | %10
 B,,4 C,2 B,,2 | A,,2 B,,2 C,2 A,,2 | D,2 E,2 D,2 C,2 | B,,6 B,,2 | A,,4 G,,2 B,,2 | x8 | %16
[M:3/4] G,,6 |] %17

